svg/teams.svg

<?xml version="1.0" encoding="UTF-8"?>
<svg xmlns="http://www.w3.org/2000/svg" xmlns:xlink="http://www.w3.org/1999/xlink" width="32.547001" height="32" viewBox="0 0 32.547001 32">
<defs>
<filter id="filter-remove-color" x="0%" y="0%" width="100%" height="100%">
<feColorMatrix color-interpolation-filters="sRGB" values="0 0 0 0 1 0 0 0 0 1 0 0 0 0 1 0 0 0 1 0" />
</filter>
<clipPath id="clip-0">
<path clip-rule="nonzero" d="M 0 0 L 32.625 0 L 32.625 32 L 0 32 Z M 0 0 "/>
</clipPath>
<image id="source-17" x="0" y="0" width="33" height="32" xlink:href="data:image/png;base64,iVBORw0KGgoAAAANSUhEUgAAACEAAAAgCAYAAACcuBHKAAAABmJLR0QA/wD/AP+gvaeTAAAAUUlEQVRYhe3ROQqAUBAE0XIJBO9/UGMZNTGQb9YIitQLB3qYBSR9WBdkJmBushuwAJUMMQaZ4cz1l1qRLQRNo9cklyhg5f6O/ZGJJEmSpL84AH1ECAl2FEcnAAAAAElFTkSuQmCC"/>
<mask id="mask-0">
<g filter="url(#filter-remove-color)">
<use xlink:href="#source-17"/>
</g>
</mask>
<clipPath id="clip-1">
<rect x="0" y="0" width="33" height="32"/>
</clipPath>
<g id="source-16" clip-path="url(#clip-1)">
<path fill-rule="nonzero" fill="rgb(0%, 0%, 0%)" fill-opacity="1" d="M 16.859375 7 L 12.632812 7 L 12.652344 7.09375 L 12.65625 7.101562 L 12.675781 7.1875 C 13.316406 9.605469 15.746094 11.09375 18.191406 10.558594 L 18.191406 8.332031 C 18.1875 7.597656 17.59375 7.003906 16.859375 7 M 16.859375 7 "/>
</g>
<clipPath id="clip-2">
<rect x="0" y="0" width="33" height="32"/>
</clipPath>
<g id="source-19" clip-path="url(#clip-2)">
<g clip-path="url(#clip-0)">
<g mask="url(#mask-0)">
<use xlink:href="#source-16"/>
</g>
</g>
</g>
<clipPath id="clip-3">
<path clip-rule="nonzero" d="M 0 0 L 32.625 0 L 32.625 32 L 0 32 Z M 0 0 "/>
</clipPath>
<image id="source-34" x="0" y="0" width="33" height="32" xlink:href="data:image/png;base64,iVBORw0KGgoAAAANSUhEUgAAACEAAAAgCAYAAACcuBHKAAAABmJLR0QA/wD/AP+gvaeTAAAAS0lEQVRYhe3OoQ3AMBBD0V+pSjtG99+qE1QKDLiGBAecgqL/kIllgyTNHcneA1wjN+AFInviTPYKcGdHV534gDpyAP+aO5IkSdJGOvDeBva9hQmWAAAAAElFTkSuQmCC"/>
<mask id="mask-1">
<g filter="url(#filter-remove-color)">
<use xlink:href="#source-34"/>
</g>
</mask>
<clipPath id="clip-4">
<rect x="0" y="0" width="33" height="32"/>
</clipPath>
<g id="source-33" clip-path="url(#clip-4)">
<path fill-rule="nonzero" fill="rgb(0%, 0%, 0%)" fill-opacity="1" d="M 15.859375 8 L 12.972656 8 C 13.746094 9.628906 15.386719 10.667969 17.191406 10.667969 L 17.191406 9.332031 C 17.1875 8.597656 16.59375 8.003906 15.859375 8 M 15.859375 8 "/>
</g>
<clipPath id="clip-5">
<rect x="0" y="0" width="33" height="32"/>
</clipPath>
<g id="source-36" clip-path="url(#clip-5)">
<g clip-path="url(#clip-3)">
<g mask="url(#mask-1)">
<use xlink:href="#source-33"/>
</g>
</g>
</g>
<clipPath id="clip-6">
<path clip-rule="nonzero" d="M 0 0 L 32.625 0 L 32.625 32 L 0 32 Z M 0 0 "/>
</clipPath>
<image id="source-52" x="0" y="0" width="33" height="32" xlink:href="data:image/png;base64,iVBORw0KGgoAAAANSUhEUgAAACEAAAAgCAYAAACcuBHKAAAABmJLR0QA/wD/AP+gvaeTAAAAS0lEQVRYhe3OoQ3AMBBD0V+pSjtG99+qE1QKDLiGBAecgqL/kIllgyTNHcneA1wjN+AFInviTPYKcGdHV534gDpyAP+aO5IkSdJGOvDeBva9hQmWAAAAAElFTkSuQmCC"/>
<mask id="mask-2">
<g filter="url(#filter-remove-color)">
<use xlink:href="#source-52"/>
</g>
</mask>
<clipPath id="clip-7">
<rect x="0" y="0" width="33" height="32"/>
</clipPath>
<g id="source-51" clip-path="url(#clip-7)">
<path fill-rule="nonzero" fill="rgb(0%, 0%, 0%)" fill-opacity="1" d="M 15.859375 8 L 12.972656 8 C 13.746094 9.628906 15.386719 10.667969 17.191406 10.667969 L 17.191406 9.332031 C 17.1875 8.597656 16.59375 8.003906 15.859375 8 M 15.859375 8 "/>
</g>
<clipPath id="clip-8">
<rect x="0" y="0" width="33" height="32"/>
</clipPath>
<g id="source-54" clip-path="url(#clip-8)">
<g clip-path="url(#clip-6)">
<g mask="url(#mask-2)">
<use xlink:href="#source-51"/>
</g>
</g>
</g>
<clipPath id="clip-9">
<path clip-rule="nonzero" d="M 0 0 L 32.625 0 L 32.625 32 L 0 32 Z M 0 0 "/>
</clipPath>
<image id="source-69" x="0" y="0" width="33" height="32" xlink:href="data:image/png;base64,iVBORw0KGgoAAAANSUhEUgAAACEAAAAgCAYAAACcuBHKAAAABmJLR0QA/wD/AP+gvaeTAAAAYElEQVRYhe3VOwqAMBAG4Ynae/9beoBALGRb8xJUmK/+i2GbBUnSj6SGzQLswFrZZeAYidg6drVtGQnoiUjcX204AK5Tv86IYEQwIhgRjAitv6Mw+R+eiMgNEXmyRfqWE+QZCSXxnbHkAAAAAElFTkSuQmCC"/>
<mask id="mask-3">
<g filter="url(#filter-remove-color)">
<use xlink:href="#source-69"/>
</g>
</mask>
<clipPath id="clip-10">
<rect x="0" y="0" width="33" height="32"/>
</clipPath>
<g id="source-68" clip-path="url(#clip-10)">
<path fill-rule="nonzero" fill="rgb(0%, 0%, 0%)" fill-opacity="1" d="M 18.191406 12 L 18.191406 24.671875 C 18.191406 25.292969 17.757812 25.828125 17.152344 25.960938 C 17.058594 25.988281 16.960938 26 16.863281 26 L 9.769531 26 C 9.640625 25.671875 9.53125 25.339844 9.441406 25 C 9.277344 24.347656 9.191406 23.675781 9.191406 23 L 9.191406 13.5 C 9.191406 13.101562 9.347656 12.71875 9.628906 12.4375 C 9.910156 12.15625 10.292969 12 10.691406 12 Z M 18.191406 12 "/>
</g>
<clipPath id="clip-11">
<rect x="0" y="0" width="33" height="32"/>
</clipPath>
<g id="source-71" clip-path="url(#clip-11)">
<g clip-path="url(#clip-9)">
<g mask="url(#mask-3)">
<use xlink:href="#source-68"/>
</g>
</g>
</g>
<clipPath id="clip-12">
<path clip-rule="nonzero" d="M 0 0 L 32.625 0 L 32.625 32 L 0 32 Z M 0 0 "/>
</clipPath>
<image id="source-86" x="0" y="0" width="33" height="32" xlink:href="data:image/png;base64,iVBORw0KGgoAAAANSUhEUgAAACEAAAAgCAYAAACcuBHKAAAABmJLR0QA/wD/AP+gvaeTAAAAcUlEQVRYhe3WMQ6AIBBE0ZGY6DG8/608BdqojVMiuyDJFvMSug35CQULiIiIzfTT3D06IgHYACwfARnA3hoxG+fW95QirtYATwRZn88ljbjUSxGkCFIEKYIUQSEiPB9YaWfo2iU8EUcl4uyJCLFZSSgP+PwNJxQM98MAAAAASUVORK5CYII="/>
<mask id="mask-4">
<g filter="url(#filter-remove-color)">
<use xlink:href="#source-86"/>
</g>
</mask>
<clipPath id="clip-13">
<rect x="0" y="0" width="33" height="32"/>
</clipPath>
<g id="source-85" clip-path="url(#clip-13)">
<path fill-rule="nonzero" fill="rgb(0%, 0%, 0%)" fill-opacity="1" d="M 17.191406 12 L 17.191406 25.671875 C 17.191406 25.769531 17.179688 25.867188 17.152344 25.960938 C 17.019531 26.566406 16.484375 27 15.863281 27 L 10.269531 27 C 10.078125 26.679688 9.910156 26.347656 9.769531 26 C 9.640625 25.671875 9.53125 25.339844 9.441406 25 C 9.277344 24.347656 9.191406 23.675781 9.191406 23 L 9.191406 13.5 C 9.191406 13.101562 9.347656 12.71875 9.628906 12.4375 C 9.910156 12.15625 10.292969 12 10.691406 12 Z M 17.191406 12 "/>
</g>
<clipPath id="clip-14">
<rect x="0" y="0" width="33" height="32"/>
</clipPath>
<g id="source-88" clip-path="url(#clip-14)">
<g clip-path="url(#clip-12)">
<g mask="url(#mask-4)">
<use xlink:href="#source-85"/>
</g>
</g>
</g>
<clipPath id="clip-15">
<path clip-rule="nonzero" d="M 0 0 L 32.625 0 L 32.625 32 L 0 32 Z M 0 0 "/>
</clipPath>
<image id="source-103" x="0" y="0" width="33" height="32" xlink:href="data:image/png;base64,iVBORw0KGgoAAAANSUhEUgAAACEAAAAgCAYAAACcuBHKAAAABmJLR0QA/wD/AP+gvaeTAAAAb0lEQVRYhe3VQQqAIBBG4ZdEdYzuf6wuYZuwTbNTmFGCgv8DV4o8XDggIiI/MjnOJGAHlsZ+ATJw9EbMznMbsFKPLs/q5o3gCfC8XFh649IoRRhFGEUYRZhPRES+7dZ8GJobkYgMXLQH2DkaIiI1NyM2CyBeQcynAAAAAElFTkSuQmCC"/>
<mask id="mask-5">
<g filter="url(#filter-remove-color)">
<use xlink:href="#source-103"/>
</g>
</mask>
<clipPath id="clip-16">
<rect x="0" y="0" width="33" height="32"/>
</clipPath>
<g id="source-102" clip-path="url(#clip-16)">
<path fill-rule="nonzero" fill="rgb(0%, 0%, 0%)" fill-opacity="1" d="M 17.191406 12 L 17.191406 23.671875 C 17.1875 24.402344 16.59375 24.996094 15.863281 25 L 9.441406 25 C 9.277344 24.347656 9.191406 23.675781 9.191406 23 L 9.191406 13.5 C 9.191406 13.101562 9.347656 12.71875 9.628906 12.4375 C 9.910156 12.15625 10.292969 12 10.691406 12 Z M 17.191406 12 "/>
</g>
<clipPath id="clip-17">
<rect x="0" y="0" width="33" height="32"/>
</clipPath>
<g id="source-105" clip-path="url(#clip-17)">
<g clip-path="url(#clip-15)">
<g mask="url(#mask-5)">
<use xlink:href="#source-102"/>
</g>
</g>
</g>
<clipPath id="clip-18">
<path clip-rule="nonzero" d="M 0 0 L 32.625 0 L 32.625 32 L 0 32 Z M 0 0 "/>
</clipPath>
<image id="source-120" x="0" y="0" width="33" height="32" xlink:href="data:image/png;base64,iVBORw0KGgoAAAANSUhEUgAAACEAAAAgCAYAAACcuBHKAAAABmJLR0QA/wD/AP+gvaeTAAAAbklEQVRYhe3VOw6AIBBF0asxxmW4/6XR2Vngp2ESYijAodDknYRuMtwKQEREfmSonFmBuTB/AAHYPBFT5dySzjMiNuxwR5AC8ojLe7kZey3yUIRRhFGEUYT5RETLs93tmX4bsQMn5V80di0SkcwNAzMKJ41P3U4AAAAASUVORK5CYII="/>
<mask id="mask-6">
<g filter="url(#filter-remove-color)">
<use xlink:href="#source-120"/>
</g>
</mask>
<clipPath id="clip-19">
<rect x="0" y="0" width="33" height="32"/>
</clipPath>
<g id="source-119" clip-path="url(#clip-19)">
<path fill-rule="nonzero" fill="rgb(0%, 0%, 0%)" fill-opacity="1" d="M 10.691406 12 C 10.292969 12 9.910156 12.15625 9.628906 12.4375 C 9.347656 12.71875 9.191406 13.101562 9.191406 13.5 L 9.191406 23 C 9.191406 23.675781 9.273438 24.347656 9.441406 25 L 14.863281 25 C 15.59375 24.992188 16.183594 24.402344 16.191406 23.671875 L 16.191406 12 Z M 10.691406 12 "/>
</g>
<clipPath id="clip-20">
<rect x="0" y="0" width="33" height="32"/>
</clipPath>
<g id="source-122" clip-path="url(#clip-20)">
<g clip-path="url(#clip-18)">
<g mask="url(#mask-6)">
<use xlink:href="#source-119"/>
</g>
</g>
</g>
</defs>
<path fill-rule="nonzero" fill="rgb(48.235294%, 51.372549%, 92.156863%)" fill-opacity="1" d="M 21.859375 6 C 21.859375 8.578125 19.769531 10.667969 17.191406 10.667969 C 14.613281 10.667969 12.523438 8.578125 12.523438 6 C 12.597656 3.476562 14.664062 1.464844 17.191406 1.464844 C 19.71875 1.464844 21.785156 3.476562 21.859375 6 M 21.859375 6 "/>
<use xlink:href="#source-19"/>
<use xlink:href="#source-36"/>
<path fill-rule="nonzero" fill="rgb(31.372549%, 34.901961%, 78.823529%)" fill-opacity="1" d="M 31.191406 7.5 C 31.191406 9.433594 29.625 11 27.691406 11 C 25.757812 11 24.191406 9.433594 24.191406 7.5 C 24.191406 5.566406 25.757812 4 27.691406 4 C 29.625 4 31.191406 5.566406 31.191406 7.5 M 30.691406 12 L 22.832031 12 C 22.480469 12 22.191406 12.285156 22.191406 12.640625 L 22.191406 20.75 C 22.148438 23.167969 23.800781 25.285156 26.15625 25.835938 C 27.632812 26.144531 29.171875 25.773438 30.339844 24.820312 C 31.511719 23.871094 32.191406 22.445312 32.191406 20.9375 L 32.191406 13.5 C 32.191406 12.671875 31.519531 12 30.691406 12 M 30.691406 12 "/>
<path fill-rule="nonzero" fill="rgb(48.235294%, 51.372549%, 92.156863%)" fill-opacity="1" d="M 25.191406 13.5 L 25.191406 23 C 25.183594 26.617188 22.753906 29.777344 19.261719 30.714844 C 15.769531 31.652344 12.082031 30.128906 10.269531 27 C 10.078125 26.679688 9.910156 26.347656 9.769531 26 C 9.640625 25.671875 9.53125 25.339844 9.441406 25 C 9.277344 24.347656 9.191406 23.675781 9.191406 23 L 9.191406 13.5 C 9.191406 13.101562 9.347656 12.71875 9.628906 12.4375 C 9.910156 12.15625 10.292969 12 10.691406 12 L 23.691406 12 C 24.089844 12 24.472656 12.15625 24.753906 12.4375 C 25.035156 12.71875 25.191406 13.101562 25.191406 13.5 M 25.191406 13.5 "/>
<use xlink:href="#source-54"/>
<use xlink:href="#source-71"/>
<use xlink:href="#source-88"/>
<use xlink:href="#source-105"/>
<use xlink:href="#source-122"/>
<path fill-rule="nonzero" fill="rgb(29.411765%, 32.54902%, 73.72549%)" fill-opacity="1" d="M 1.523438 8 L 14.859375 8 C 15.59375 8 16.191406 8.597656 16.191406 9.332031 L 16.191406 22.667969 C 16.191406 23.402344 15.59375 24 14.859375 24 L 1.523438 24 C 0.789062 24 0.191406 23.402344 0.191406 22.667969 L 0.191406 9.332031 C 0.191406 8.597656 0.789062 8 1.523438 8 M 1.523438 8 "/>
<path fill-rule="nonzero" fill="rgb(100%, 100%, 100%)" fill-opacity="1" d="M 12.171875 12.976562 L 9.179688 12.976562 L 9.179688 20.996094 L 7.21875 20.996094 L 7.21875 12.976562 L 4.210938 12.976562 L 4.210938 11.003906 L 12.171875 11.003906 Z M 12.171875 12.976562 "/>
</svg>

<svg role="img" viewBox="0 0 32.547 32" height="32" width="32.547" xmlns="http://www.w3.org/2000/svg"><defs><clipPath id="540__497__447__clip-0"><path d="M0 0h32.625v32H0Zm0 0"/></clipPath><clipPath id="541__498__448__clip-1"><path d="M0 0h33v32H0z"/></clipPath><clipPath id="542__499__450__clip-3"><path d="M0 0h32.625v32H0Zm0 0"/></clipPath><clipPath id="543__500__451__clip-4"><path d="M0 0h33v32H0z"/></clipPath><clipPath id="544__501__453__clip-6"><path d="M0 0h32.625v32H0Zm0 0"/></clipPath><clipPath id="545__502__454__clip-7"><path d="M0 0h33v32H0z"/></clipPath><clipPath id="546__503__456__clip-9"><path d="M0 0h32.625v32H0Zm0 0"/></clipPath><clipPath id="547__504__457__clip-10"><path d="M0 0h33v32H0z"/></clipPath><clipPath id="548__505__459__clip-12"><path d="M0 0h32.625v32H0Zm0 0"/></clipPath><clipPath id="549__506__460__clip-13"><path d="M0 0h33v32H0z"/></clipPath><clipPath id="550__507__462__clip-15"><path d="M0 0h32.625v32H0Zm0 0"/></clipPath><clipPath id="551__508__463__clip-16"><path d="M0 0h33v32H0z"/></clipPath><clipPath id="552__509__465__clip-18"><path d="M0 0h32.625v32H0Zm0 0"/></clipPath><clipPath id="553__510__466__clip-19"><path d="M0 0h33v32H0z"/></clipPath><g clip-path="url(#541__498__448__clip-1)" id="554__511__468__source-16"><path d="M16.86 7h-4.227l.02.094.003.008.02.085a4.674 4.674 0 0 0 5.515 3.372V8.332A1.339 1.339 0 0 0 16.86 7m0 0"/></g><g clip-path="url(#540__497__447__clip-0)" id="555__512__469__source-19" mask="url(#556__513__470__mask-0)"><use href="#554__511__468__source-16"/></g><g clip-path="url(#543__500__451__clip-4)" id="557__514__471__source-33"><path d="M15.86 8h-2.887a4.67 4.67 0 0 0 4.218 2.668V9.332A1.339 1.339 0 0 0 15.86 8m0 0"/></g><g clip-path="url(#542__499__450__clip-3)" id="558__515__472__source-36" mask="url(#559__516__473__mask-1)"><use href="#557__514__471__source-33"/></g><g clip-path="url(#545__502__454__clip-7)" id="560__517__474__source-51"><path d="M15.86 8h-2.887a4.67 4.67 0 0 0 4.218 2.668V9.332A1.339 1.339 0 0 0 15.86 8m0 0"/></g><g clip-path="url(#544__501__453__clip-6)" id="561__518__475__source-54" mask="url(#562__519__476__mask-2)"><use href="#560__517__474__source-51"/></g><g clip-path="url(#547__504__457__clip-10)" id="563__520__477__source-68"><path d="M18.191 12v12.672a1.32 1.32 0 0 1-1.039 1.289 1.039 1.039 0 0 1-.289.039H9.77a9.064 9.064 0 0 1-.329-1 8.203 8.203 0 0 1-.25-2v-9.5c0-.398.157-.781.438-1.062A1.502 1.502 0 0 1 10.69 12Zm0 0"/></g><g clip-path="url(#546__503__456__clip-9)" id="564__521__478__source-71" mask="url(#565__522__479__mask-3)"><use href="#563__520__477__source-68"/></g><g clip-path="url(#549__506__460__clip-13)" id="566__523__480__source-85"><path d="M17.191 12v13.672c0 .098-.011.195-.039.289A1.32 1.32 0 0 1 15.863 27H10.27a7.239 7.239 0 0 1-.5-1 9.064 9.064 0 0 1-.329-1 8.203 8.203 0 0 1-.25-2v-9.5c0-.398.157-.781.438-1.062A1.502 1.502 0 0 1 10.69 12Zm0 0"/></g><g clip-path="url(#548__505__459__clip-12)" id="567__524__481__source-88" mask="url(#568__525__482__mask-4)"><use href="#566__523__480__source-85"/></g><g clip-path="url(#551__508__463__clip-16)" id="569__526__483__source-102"><path d="M17.191 12v11.672A1.337 1.337 0 0 1 15.863 25H9.441a8.203 8.203 0 0 1-.25-2v-9.5c0-.398.157-.781.438-1.062A1.502 1.502 0 0 1 10.69 12Zm0 0"/></g><g clip-path="url(#550__507__462__clip-15)" id="570__527__484__source-105" mask="url(#571__528__485__mask-5)"><use href="#569__526__483__source-102"/></g><g clip-path="url(#553__510__466__clip-19)" id="572__529__486__source-119"><path d="M10.691 12a1.5 1.5 0 0 0-1.062.438A1.502 1.502 0 0 0 9.19 13.5V23c0 .676.082 1.348.25 2h5.422a1.342 1.342 0 0 0 1.328-1.328V12Zm0 0"/></g><g clip-path="url(#552__509__465__clip-18)" id="573__530__487__source-122" mask="url(#574__531__488__mask-6)"><use href="#572__529__486__source-119"/></g><image height="32" href="data:image/png;base64,iVBORw0KGgoAAAANSUhEUgAAACEAAAAgCAYAAACcuBHKAAAABmJLR0QA/wD/AP+gvaeTAAAAUUlEQVRYhe3ROQqAUBAE0XIJBO9/UGMZNTGQb9YIitQLB3qYBSR9WBdkJmBushuwAJUMMQaZ4cz1l1qRLQRNo9cklyhg5f6O/ZGJJEmSpL84AH1ECAl2FEcnAAAAAElFTkSuQmCC" id="575__532__489__source-17" width="33" x="0" y="0"/><image height="32" href="data:image/png;base64,iVBORw0KGgoAAAANSUhEUgAAACEAAAAgCAYAAACcuBHKAAAABmJLR0QA/wD/AP+gvaeTAAAAS0lEQVRYhe3OoQ3AMBBD0V+pSjtG99+qE1QKDLiGBAecgqL/kIllgyTNHcneA1wjN+AFInviTPYKcGdHV534gDpyAP+aO5IkSdJGOvDeBva9hQmWAAAAAElFTkSuQmCC" id="576__533__490__source-34" width="33" x="0" y="0"/><image height="32" href="data:image/png;base64,iVBORw0KGgoAAAANSUhEUgAAACEAAAAgCAYAAACcuBHKAAAABmJLR0QA/wD/AP+gvaeTAAAAS0lEQVRYhe3OoQ3AMBBD0V+pSjtG99+qE1QKDLiGBAecgqL/kIllgyTNHcneA1wjN+AFInviTPYKcGdHV534gDpyAP+aO5IkSdJGOvDeBva9hQmWAAAAAElFTkSuQmCC" id="577__534__491__source-52" width="33" x="0" y="0"/><image height="32" href="data:image/png;base64,iVBORw0KGgoAAAANSUhEUgAAACEAAAAgCAYAAACcuBHKAAAABmJLR0QA/wD/AP+gvaeTAAAAYElEQVRYhe3VOwqAMBAG4Ynae/9beoBALGRb8xJUmK/+i2GbBUnSj6SGzQLswFrZZeAYidg6drVtGQnoiUjcX204AK5Tv86IYEQwIhgRjAitv6Mw+R+eiMgNEXmyRfqWE+QZCSXxnbHkAAAAAElFTkSuQmCC" id="578__535__492__source-69" width="33" x="0" y="0"/><image height="32" href="data:image/png;base64,iVBORw0KGgoAAAANSUhEUgAAACEAAAAgCAYAAACcuBHKAAAABmJLR0QA/wD/AP+gvaeTAAAAcUlEQVRYhe3WMQ6AIBBE0ZGY6DG8/608BdqojVMiuyDJFvMSug35CQULiIiIzfTT3D06IgHYACwfARnA3hoxG+fW95QirtYATwRZn88ljbjUSxGkCFIEKYIUQSEiPB9YaWfo2iU8EUcl4uyJCLFZSSgP+PwNJxQM98MAAAAASUVORK5CYII=" id="579__536__493__source-86" width="33" x="0" y="0"/><image height="32" href="data:image/png;base64,iVBORw0KGgoAAAANSUhEUgAAACEAAAAgCAYAAACcuBHKAAAABmJLR0QA/wD/AP+gvaeTAAAAb0lEQVRYhe3VQQqAIBBG4ZdEdYzuf6wuYZuwTbNTmFGCgv8DV4o8XDggIiI/MjnOJGAHlsZ+ATJw9EbMznMbsFKPLs/q5o3gCfC8XFh649IoRRhFGEUYRZhPRES+7dZ8GJobkYgMXLQH2DkaIiI1NyM2CyBeQcynAAAAAElFTkSuQmCC" id="580__537__494__source-103" width="33" x="0" y="0"/><image height="32" href="data:image/png;base64,iVBORw0KGgoAAAANSUhEUgAAACEAAAAgCAYAAACcuBHKAAAABmJLR0QA/wD/AP+gvaeTAAAAbklEQVRYhe3VOw6AIBBF0asxxmW4/6XR2Vngp2ESYijAodDknYRuMtwKQEREfmSonFmBuTB/AAHYPBFT5dySzjMiNuxwR5AC8ojLe7kZey3yUIRRhFGEUYT5RETLs93tmX4bsQMn5V80di0SkcwNAzMKJ41P3U4AAAAASUVORK5CYII=" id="581__538__495__source-120" width="33" x="0" y="0"/><mask id="556__513__470__mask-0"><g filter="url(#582__539__496__filter-remove-color)"><use href="#575__532__489__source-17"/></g></mask><mask id="559__516__473__mask-1"><g filter="url(#582__539__496__filter-remove-color)"><use href="#576__533__490__source-34"/></g></mask><mask id="562__519__476__mask-2"><g filter="url(#582__539__496__filter-remove-color)"><use href="#577__534__491__source-52"/></g></mask><mask id="565__522__479__mask-3"><g filter="url(#582__539__496__filter-remove-color)"><use href="#578__535__492__source-69"/></g></mask><mask id="568__525__482__mask-4"><g filter="url(#582__539__496__filter-remove-color)"><use href="#579__536__493__source-86"/></g></mask><mask id="571__528__485__mask-5"><g filter="url(#582__539__496__filter-remove-color)"><use href="#580__537__494__source-103"/></g></mask><mask id="574__531__488__mask-6"><g filter="url(#582__539__496__filter-remove-color)"><use href="#581__538__495__source-120"/></g></mask><filter height="100%" id="582__539__496__filter-remove-color" width="100%" x="0%" y="0%"><feColorMatrix color-interpolation-filters="sRGB" values="0 0 0 0 1 0 0 0 0 1 0 0 0 0 1 0 0 0 1 0"/></filter></defs><path d="M21.86 6a4.668 4.668 0 1 1-9.337 0 4.672 4.672 0 0 1 4.668-4.535A4.672 4.672 0 0 1 21.86 6m0 0" fill="rgb(48.235294%, 51.372549%, 92.156863%)"/><use href="#555__512__469__source-19"/><use href="#558__515__472__source-36"/><path d="M31.191 7.5a3.5 3.5 0 1 1-7 0 3.5 3.5 0 1 1 7 0m-.5 4.5h-7.859a.641.641 0 0 0-.64.64v8.11a5.13 5.13 0 0 0 3.964 5.086 5 5 0 0 0 4.184-1.016 4.995 4.995 0 0 0 1.851-3.883V13.5a1.5 1.5 0 0 0-1.5-1.5m0 0" fill="rgb(31.372549%, 34.901961%, 78.823529%)"/><path d="M25.191 13.5V23a8.004 8.004 0 0 1-5.93 7.715A7.997 7.997 0 0 1 10.27 27a7.239 7.239 0 0 1-.5-1 9.064 9.064 0 0 1-.329-1 8.203 8.203 0 0 1-.25-2v-9.5c0-.398.157-.781.438-1.062A1.502 1.502 0 0 1 10.69 12h13c.399 0 .782.156 1.063.438a1.5 1.5 0 0 1 .437 1.062m0 0" fill="rgb(48.235294%, 51.372549%, 92.156863%)"/><use href="#561__518__475__source-54"/><use href="#564__521__478__source-71"/><use href="#567__524__481__source-88"/><use href="#570__527__484__source-105"/><use href="#573__530__487__source-122"/><path d="M1.523 8H14.86c.735 0 1.332.598 1.332 1.332v13.336c0 .734-.597 1.332-1.332 1.332H1.523a1.334 1.334 0 0 1-1.332-1.332V9.332C.191 8.598.79 8 1.523 8m0 0" fill="rgb(29.411765%, 32.54902%, 73.72549%)"/><path d="M12.172 12.977H9.18v8.02H7.219v-8.02H4.21v-1.973h7.96Zm0 0" fill="rgb(100%, 100%, 100%)"/></svg>
